src/lib/packages/icons/src/assets/line/coupon-star.svg

<svg width="24" height="24" viewBox="0 0 24 24" fill="none" xmlns="http://www.w3.org/2000/svg">
<path d="M18 20.75H6C3.582 20.75 2.25 19.418 2.25 17V13.25H3C3.689 13.25 4.25 12.689 4.25 12C4.25 11.311 3.689 10.75 3 10.75H2.25V7C2.25 4.582 3.582 3.25 6 3.25H18C20.418 3.25 21.75 4.582 21.75 7V10.75H21C20.311 10.75 19.75 11.311 19.75 12C19.75 12.689 20.311 13.25 21 13.25H21.75V17C21.75 19.418 20.418 20.75 18 20.75ZM3.75 14.646V17C3.75 18.577 4.423 19.25 6 19.25H18C19.577 19.25 20.25 18.577 20.25 17V14.646C19.097 14.319 18.25 13.257 18.25 12C18.25 10.743 19.097 9.681 20.25 9.354V7C20.25 5.423 19.577 4.75 18 4.75H6C4.423 4.75 3.75 5.423 3.75 7V9.354C4.903 9.681 5.75 10.743 5.75 12C5.75 13.257 4.903 14.319 3.75 14.646ZM14.292 16.75C14.093 16.75 13.894 16.702 13.709 16.606L12 15.714L10.292 16.605C9.86399 16.829 9.35602 16.79 8.96802 16.506C8.58002 16.223 8.39005 15.753 8.47205 15.281L8.79602 13.405L7.37195 12.028C7.03495 11.702 6.91506 11.223 7.06006 10.777C7.20506 10.33 7.58297 10.011 8.04797 9.944L10.0229 9.66L10.875 7.94699C11.088 7.51799 11.52 7.25 12.001 7.25C12.481 7.25 12.913 7.51699 13.127 7.94699L13.979 9.66L15.954 9.944C16.419 10.011 16.798 10.33 16.942 10.777C17.087 11.223 16.966 11.702 16.63 12.028L15.2061 13.405L15.531 15.283C15.612 15.756 15.422 16.225 15.033 16.508C14.811 16.668 14.552 16.75 14.292 16.75ZM12 14.18C12.194 14.18 12.389 14.226 12.566 14.319L13.965 15.049L13.699 13.513C13.631 13.114 13.763 12.709 14.054 12.428L15.172 11.347L13.618 11.123C13.222 11.066 12.878 10.818 12.698 10.459L11.998 9.05099L11.299 10.457C11.118 10.817 10.775 11.065 10.377 11.123L8.82397 11.347L9.94299 12.429C10.233 12.709 10.366 13.114 10.297 13.512L10.031 15.047L11.4301 14.318C11.6111 14.226 11.806 14.18 12 14.18ZM15.099 13.507C15.098 13.507 15.098 13.507 15.099 13.507V13.507ZM15.7371 11.428H15.748H15.7371ZM11.782 8.61401C11.782 8.61401 11.783 8.615 11.783 8.616L11.782 8.61401Z" fill="currentColor"/>
</svg>

<svg xmlns="http://www.w3.org/2000/svg" width="24" height="24" fill="none"><path fill="currentColor" d="M18 20.75H6c-2.418 0-3.75-1.332-3.75-3.75v-3.75H3c.689 0 1.25-.561 1.25-1.25S3.689 10.75 3 10.75h-.75V7c0-2.418 1.332-3.75 3.75-3.75h12c2.418 0 3.75 1.332 3.75 3.75v3.75H21c-.689 0-1.25.561-1.25 1.25s.561 1.25 1.25 1.25h.75V17c0 2.418-1.332 3.75-3.75 3.75ZM3.75 14.646V17c0 1.577.673 2.25 2.25 2.25h12c1.577 0 2.25-.673 2.25-2.25v-2.354a2.754 2.754 0 0 1-2-2.646c0-1.257.847-2.319 2-2.646V7c0-1.577-.673-2.25-2.25-2.25H6c-1.577 0-2.25.673-2.25 2.25v2.354c1.153.327 2 1.389 2 2.646a2.754 2.754 0 0 1-2 2.646Zm10.542 2.104c-.199 0-.398-.048-.583-.144L12 15.714l-1.708.891a1.249 1.249 0 0 1-1.324-.099 1.244 1.244 0 0 1-.496-1.225l.324-1.876-1.424-1.377a1.209 1.209 0 0 1-.312-1.251c.145-.447.523-.766.988-.833l1.975-.284.852-1.713a1.25 1.25 0 0 1 1.126-.697c.48 0 .912.267 1.126.697l.852 1.713 1.975.284c.465.067.844.386.988.833a1.21 1.21 0 0 1-.312 1.251l-1.424 1.377.325 1.878c.081.473-.109.942-.498 1.225-.222.16-.481.242-.741.242ZM12 14.18c.194 0 .389.046.566.139l1.399.73-.266-1.536a1.22 1.22 0 0 1 .355-1.085l1.118-1.081-1.554-.224a1.225 1.225 0 0 1-.92-.664l-.7-1.408-.699 1.406a1.23 1.23 0 0 1-.922.666l-1.553.224 1.119 1.082c.29.28.423.685.354 1.083l-.266 1.535 1.4-.729A1.25 1.25 0 0 1 12 14.18Zm3.099-.673c-.001 0-.001 0 0 0Zm.638-2.079h.011-.01Zm-3.955-2.814.001.002-.001-.002Z"/></svg>
